X:336
T:Allenheads Hill. RH.336
T:Miss Thompson’s Hornpipe,aka. RH.336
R:.hornpipe
S:Rev.R.Harrison’s MS,c1815,Cumbria
N:The A music sounds like Lodge Road. PJH.
O:England
A:Temple Sowerby,Cumbria
Z:vmp.Simon Wilson. Review PJH, 2008.
M:C|
L:1/8
Q:1/2=90
K:G
d/f/|gfgb agfe|d^cde d=cBA|GBdB GBdB|c2A2 A3e|!
gfgb agfe|d^cde d=cBA|GBdB ecAF|G2G2 G3:|!
|:B|AGFG ABcA|BAGA BcdB|ecdB cABG|AGFG A3B|!
AGFG ABcA|BAGA BcdB|ecdB cABG|AGFE D3:|

